jsapp/svg-icons/expand.svg

<svg height="40" viewBox="0 0 40 40" width="40" xmlns="http://www.w3.org/2000/svg"><path d="m11 13h3v-2h-3c-1.103 0-2 .897-2 2v3h2zm18-2h-3v2h3v3h2v-3c0-1.103-.897-2-2-2m-15 18v-2h-3v-3h-2v3c0 1.103.897 2 2 2zm15-2h-3v2h3c1.103 0 2-.897 2-2v-3h-2zm-14-10h10v6h-10zm-2 8h14v-10h-14z" fill-rule="evenodd"/></svg>

<?xml version="1.0" encoding="UTF-8"?>
<svg width="40px" height="40px" viewBox="0 0 40 40" version="1.1" xmlns="http://www.w3.org/2000/svg" xmlns:xlink="http://www.w3.org/1999/xlink">
    <!-- Generator: Sketch 50.2 (55047) - http://www.bohemiancoding.com/sketch -->
    <title>Icons/expand</title>
    <desc>Created with Sketch.</desc>
    <defs>
        <path d="M11,13 L14,13 L14,11 L11,11 C9.897,11 9,11.897 9,13 L9,16 L11,16 L11,13 Z M29,11 L26,11 L26,13 L29,13 L29,16 L31,16 L31,13 C31,11.897 30.103,11 29,11 M14,29 L14,27 L11,27 L11,24 L9,24 L9,27 C9,28.103 9.897,29 11,29 L14,29 Z M29,27 L26,27 L26,29 L29,29 C30.103,29 31,28.103 31,27 L31,24 L29,24 L29,27 Z M15,17 L25,17 L25,23 L15,23 L15,17 Z M13,25 L27,25 L27,15 L13,15 L13,25 Z" id="path-1"></path>
    </defs>
    <g id="Icons/expand" stroke="none" stroke-width="1" fill="none" fill-rule="evenodd">
        <mask id="mask-2" fill="white">
            <use xlink:href="#path-1"></use>
        </mask>
        <use id="Mask" fill="#000000" xlink:href="#path-1"></use>
    </g>
</svg>
